X:1
T: Paddy was up to Ganger
C:
R:Jig
Q:180
K:G
M:6/8
L:1/16
|:dc|B2A2G2 A2G2E2|D2G2A2 B2A2G2|B2A2G2 d2c2B2|B2A2A2 A2G2A2|
B2A2G2 A2G2E2|D2G2A2 B2A2G2|B2d2g2 d2B2G2|A2E2D2 G4:|
|:B2|G2B2d2 e2f2g2|d2B2G2 A2G2E2|G2B2d2 e2f2g2|f2d2d2 d2e2f2|
g2f2e2 d2c2B2|A2G2A2 B2G2E2|D2c2B2 A2G2A2|B2G2G2 G4:|
